X:1
T: Urgammal polska
R: Polska
C: Gammelspaken
O: Särna
S: Utlärd av Jonas Hjalmarsson
Z: Karin Arén
M:3/4
L:1/8
K:Am
|: vc>d ve2 u(g>e) | v(^f>d) ue4 | ve>ud vc2 uA2 | v(d>f) ue2 v(c2 |
c)>ud ve2 u(g>e)| v(^f>d) ue4 | ve>(ud (3c)vAuc vB>G | vA2 uA4 :|:
uB>uc vB3 uG | vA>uB vc2 uc2 | vc2 u(B>G (3A)vBuc | ((3vABG) uE4 |
uB>uc vB3 uG | vA>uB vc2 uc2 | vc2 u(B>G (3A)vBuc | ((3ABG) uA4 :|

